public/images/sponsors/Cognizant.svg

<svg fill="none" height="86" viewBox="0 0 172 86" width="172" xmlns="http://www.w3.org/2000/svg" xmlns:xlink="http://www.w3.org/1999/xlink"><clipPath id="a"><path d="m7 26h158v34h-158z"/></clipPath><g clip-path="url(#a)" fill="#0033a1"><path d="m97.7051 46.8802 9.3929-9.2953h-9.2584v-4.3691h15.8274v4.4434l-9.394 9.2581h9.577v4.3815h-16.1449z"/><path d="m95.9197 27.2625h-4.8924v4.4929h4.8924z"/><path d="m95.8455 33.2654h-4.8924v18.083h4.8924z"/><path d="m31.7554 42.2511c.0245-5.1737 4.183-9.3447 9.2833-9.3324 5.1126.0248 9.2344 4.233 9.2222 9.3943-.0245 5.1612-4.1585 9.3323-9.2589 9.3323-5.1003.0124-9.2466-4.1711-9.2588-9.3323.0122-.0248.0122-.0372.0122-.0619zm13.7599 0c0-2.5621-2.0059-4.7033-4.501-4.7033-2.5319 0-4.4644 2.1288-4.4644 4.7033 0 2.5744 1.9325 4.7033 4.4644 4.7033 2.4951 0 4.501-2.1412 4.501-4.7033z"/><path d="m72.3506 33.2159h4.8557v2.0298c1.1375-1.4852 2.8987-2.3888 4.9291-2.3888 4.2197 0 6.7515 2.7478 6.7515 7.4139v11.0281h-4.9536v-10.3721c0-2.4259-1.113-3.8369-3.2901-3.8369-1.8591 0-3.4002 1.2996-3.4002 4.332v9.877h-4.8924z"/><path d="m114.131 42.2511c0-6.399 4.648-9.4066 8.684-9.4066 2.324 0 4.146.8664 5.32 2.1289v-1.7576h4.893v18.083h-4.893v-2.0299c-1.174 1.411-3.07 2.3888-5.394 2.3888-3.791-.0123-8.61-3.0447-8.61-9.4066zm14.139-.0371c0-2.6735-1.933-4.8395-4.575-4.8395-2.703-.0124-4.782 2.0546-4.782 4.8395 0 2.7848 2.067 4.8766 4.782 4.8766 2.655 0 4.587-2.2032 4.575-4.8766z"/><path d="m135.009 33.2159h4.856v2.0298c1.137-1.4852 2.899-2.3888 4.929-2.3888 4.22 0 6.752 2.7478 6.752 7.4139v11.0281h-4.966v-10.3721c0-2.4259-1.101-3.8369-3.29-3.8369-1.859 0-3.401 1.2996-3.401 4.332v9.877h-4.892z"/><path d="m97.7051 51.2864v-4.4062l9.3929-9.2953h-9.2584v-4.3691h15.8274v4.4434l-9.394 9.2581"/><path d="m26.5329 42.0903-.0612.1485c-1.3454 2.8839-3.8405 4.53-6.8249 4.53-4.3297 0-7.7055-3.4532-7.7055-7.8718 0-4.5301 3.3635-7.9338 7.8156-7.9338 2.8865 0 5.0759 1.3739 6.5191 4.0721l.0734.1485 4.3543-2.822-.0734-.1237c-2.2628-3.9112-6.3234-6.2381-10.8734-6.2381-7.2652 0-12.7569 5.545-12.7569 12.9094 0 7.4757 5.3572 12.8969 12.7447 12.8969 4.7579 0 8.9653-2.6734 11.2525-7.154l.0734-.1361z"/><path d="m51.4961 42.2511c0-6.399 4.6478-9.4066 8.684-9.4066 2.3239 0 4.1463.9778 5.3205 2.3145v-1.9432h4.8924v17.5755c0 5.0994-3.1801 9.221-9.2222 9.221-4.5377 0-7.8645-2.3888-9.2955-5.2108l4.3175-2.463c.9296 1.8813 2.5685 3.0695 4.9658 3.0695 2.6419 0 4.3175-2.0917 4.3175-4.4434v-1.6957c-1.1741 1.411-3.07 2.3888-5.3938 2.3888-3.7672-.0123-8.5862-3.0447-8.5862-9.4066zm14.1513-.0371c0-2.6735-1.9325-4.8395-4.5744-4.8395-2.7153 0-4.7824 2.0546-4.7824 4.8395 0 2.7848 2.0671 4.8766 4.7824 4.8766 2.6419 0 4.5744-2.2032 4.5744-4.8766z"/><path d="m163.605 37.6592v-4.4434h-3.363v-5.9658h-4.893v5.9658h-3.045v4.4434h3.033v5.7801c0 5.8915 1.859 7.8471 7.534 7.8471h.71v-4.629c-2.997 0-3.364-.4332-3.364-3.2552v-5.743z"/></g></svg>

<svg width="172" height="86" viewBox="0 0 172 86" fill="none" xmlns="http://www.w3.org/2000/svg">
<g clip-path="url(#clip0)">
<path d="M97.7051 46.8802L107.098 37.5849H97.8396V33.2158H113.667V37.6592L104.273 46.9173H113.85V51.2988H97.7051V46.8802Z" fill="#0033A1"/>
<path d="M95.9197 27.2625H91.0273V31.7554H95.9197V27.2625Z" fill="#0033A1"/>
<path d="M95.8455 33.2654H90.9531V51.3484H95.8455V33.2654Z" fill="#0033A1"/>
<path d="M31.7554 42.2511C31.7799 37.0774 35.9384 32.9064 41.0387 32.9187C46.1513 32.9435 50.2731 37.1517 50.2609 42.313C50.2364 47.4742 46.1024 51.6453 41.002 51.6453C35.9017 51.6577 31.7554 47.4742 31.7432 42.313C31.7554 42.2882 31.7554 42.2758 31.7554 42.2511ZM45.5153 42.2511C45.5153 39.689 43.5094 37.5478 41.0143 37.5478C38.4824 37.5478 36.5499 39.6766 36.5499 42.2511C36.5499 44.8255 38.4824 46.9544 41.0143 46.9544C43.5094 46.9544 45.5153 44.8132 45.5153 42.2511Z" fill="#0033A1"/>
<path d="M72.3506 33.2159H77.2063V35.2457C78.3438 33.7605 80.105 32.8569 82.1354 32.8569C86.3551 32.8569 88.8869 35.6047 88.8869 40.2708V51.2989H83.9333V40.9268C83.9333 38.5009 82.8203 37.0899 80.6432 37.0899C78.7841 37.0899 77.243 38.3895 77.243 41.4219V51.2989H72.3506V33.2159Z" fill="#0033A1"/>
<path d="M114.131 42.2511C114.131 35.8521 118.779 32.8445 122.815 32.8445C125.139 32.8445 126.961 33.7109 128.135 34.9734V33.2158H133.028V51.2988H128.135V49.2689C126.961 50.6799 125.065 51.6577 122.741 51.6577C118.95 51.6454 114.131 48.613 114.131 42.2511ZM128.27 42.214C128.27 39.5405 126.337 37.3745 123.695 37.3745C120.992 37.3621 118.913 39.4291 118.913 42.214C118.913 44.9988 120.98 47.0906 123.695 47.0906C126.35 47.0906 128.282 44.8874 128.27 42.214Z" fill="#0033A1"/>
<path d="M135.009 33.2159H139.865V35.2457C141.002 33.7605 142.764 32.8569 144.794 32.8569C149.014 32.8569 151.546 35.6047 151.546 40.2708V51.2989H146.58V40.9268C146.58 38.5009 145.479 37.0899 143.29 37.0899C141.431 37.0899 139.889 38.3895 139.889 41.4219V51.2989H134.997L135.009 33.2159Z" fill="#0033A1"/>
<path d="M97.7051 51.2864V46.8802L107.098 37.5849H97.8396V33.2158H113.667V37.6592L104.273 46.9173" fill="#0033A1"/>
<path d="M26.5329 42.0903L26.4717 42.2388C25.1263 45.1227 22.6312 46.7688 19.6468 46.7688C15.3171 46.7688 11.9413 43.3156 11.9413 38.897C11.9413 34.3669 15.3048 30.9632 19.7569 30.9632C22.6434 30.9632 24.8328 32.3371 26.276 35.0353L26.3494 35.1838L30.7037 32.3618L30.6303 32.2381C28.3675 28.3269 24.3069 26 19.7569 26C12.4917 26 7 31.545 7 38.9094C7 46.3851 12.3572 51.8063 19.7447 51.8063C24.5026 51.8063 28.71 49.1329 30.9972 44.6523L31.0706 44.5162L26.5329 42.0903Z" fill="#0033A1"/>
<path d="M51.4961 42.2511C51.4961 35.8521 56.1439 32.8445 60.1801 32.8445C62.504 32.8445 64.3264 33.8223 65.5006 35.159V33.2158H70.393V50.7913C70.393 55.8907 67.2129 60.0123 61.1708 60.0123C56.6331 60.0123 53.3063 57.6235 51.8753 54.8015L56.1928 52.3385C57.1224 54.2198 58.7613 55.408 61.1586 55.408C63.8005 55.408 65.4761 53.3163 65.4761 50.9646V49.2689C64.302 50.6799 62.4061 51.6577 60.0823 51.6577C56.3151 51.6454 51.4961 48.613 51.4961 42.2511ZM65.6474 42.214C65.6474 39.5405 63.7149 37.3745 61.073 37.3745C58.3577 37.3745 56.2906 39.4291 56.2906 42.214C56.2906 44.9988 58.3577 47.0906 61.073 47.0906C63.7149 47.0906 65.6474 44.8874 65.6474 42.214Z" fill="#0033A1"/>
<path d="M163.605 37.6592V33.2158H160.242V27.25H155.349V33.2158H152.304V37.6592H155.337V43.4393C155.337 49.3308 157.196 51.2864 162.871 51.2864H163.581V46.6574C160.584 46.6574 160.217 46.2242 160.217 43.4022V37.6592H163.605Z" fill="#0033A1"/>
</g>
<defs>
<clipPath id="clip0">
<rect width="158" height="34" fill="white" transform="translate(7 26)"/>
</clipPath>
</defs>
</svg>
